assets/barakhdi/3_g/5_goo.svg

<?xml version="1.0" encoding="UTF-8" standalone="no"?>
<svg
   width="74.599998"
   height="86.800003"
   version="1.1"
   id="svg709"
   sodipodi:docname="5_goo.svg"
   inkscape:version="1.2.1 (9c6d41e410, 2022-07-14)"
   xmlns:inkscape="http://www.inkscape.org/namespaces/inkscape"
   xmlns:sodipodi="http://sodipodi.sourceforge.net/DTD/sodipodi-0.dtd"
   xmlns="http://www.w3.org/2000/svg"
   xmlns:svg="http://www.w3.org/2000/svg">
  <defs
     id="defs713" />
  <sodipodi:namedview
     id="namedview711"
     pagecolor="#ffffff"
     bordercolor="#666666"
     borderopacity="1.0"
     inkscape:showpageshadow="2"
     inkscape:pageopacity="0.0"
     inkscape:pagecheckerboard="0"
     inkscape:deskcolor="#d1d1d1"
     showgrid="false"
     inkscape:zoom="7.239264"
     inkscape:cx="25.69322"
     inkscape:cy="50.833897"
     inkscape:window-width="1920"
     inkscape:window-height="1027"
     inkscape:window-x="-8"
     inkscape:window-y="-8"
     inkscape:window-maximized="1"
     inkscape:current-layer="svg709" />
  <g
     id="g1100-0"
     inkscape:label="g1"
     transform="matrix(0.9997453,0,0,1,0,0.00113663)">
    <path
       id="path1096-1"
       style="display:inline;stroke-width:1.00013"
       inkscape:label="p1"
       d="m 60.315362,60.298863 h -1.000254 q -6.701707,0 -9.902523,-3 v 0 q -1.800458,-1.6 -2.650675,-4.1 -0.850216,-2.5 -0.850216,-6.7 v 0 -46.49999963 l 5.30135,0.8 V 46.198863 q 0,3.2 0.500127,4.85 0.500128,1.65 1.700433,2.55 v 0 q 1.200306,1.2 3.150803,1.45 1.950497,0.25 4.251083,0.25 v 0 z m -41.210496,-18.6 v 0 q -5.601427,0 -10.3026241,-3 -4.7011974,-3 -8.8022419,-9.4 v 0 l 4.401121,-2.9 q 3.3008407,5.3 6.651694,7.85 3.350854,2.55 7.852,2.55 v 0 q 11.002802,0 11.002802,-15.2 v 0 q 0,-8.1 -3.100789,-12.3499996 -3.10079,-4.25 -9.602446,-4.25 v 0 q -3.000764,0 -5.85149,0.75 -2.8507265,0.75 -5.2513379,1.95 v 0 l -1.8004586,-4.7 Q 10.802751,-0.00113663 17.404433,-0.00113663 v 0 q 8.602191,0 13.253376,5.65000003 4.651184,5.6499996 4.651184,16.0499996 v 0 q 0,7.2 -2.100535,11.6 -2.100535,4.4 -5.751465,6.4 -3.65093,2 -8.352127,2 z" />
    <path
       style="fill:none;stroke:#000000;stroke-width:1px;stroke-linecap:butt;stroke-linejoin:miter;stroke-opacity:1"
       d="M 5.1110167,5.3786544 C 7.9569982,4.4053666 10.729974,3.1187655 13.74917,2.7709717 c 3.864238,-0.5759492 8.035432,-0.3555143 11.482924,1.6478216 2.778957,1.565769 4.725982,4.3013607 5.816921,7.2558397 1.688958,4.683367 1.807164,9.780359 1.292464,14.685749 -0.511794,3.880063 -1.96099,7.9325 -5.153904,10.399892 -3.880399,2.819337 -9.169193,3.093213 -13.618228,1.593214 C 9.7051937,37.026498 6.7204676,34.011429 4.3615124,30.780452 3.6113031,29.765314 2.8610937,28.750175 2.1108844,27.735036"
       id="path2467-6"
       inkscape:label="s1" />
    <path
       style="fill:none;stroke:#000000;stroke-width:1px;stroke-linecap:butt;stroke-linejoin:miter;stroke-opacity:1"
       d="m 48.503106,0 c 0.03622,15.932961 0.01451,31.866641 0.087,47.799152 0.08139,2.829987 0.551096,5.907864 3.058307,7.861004 2.155272,1.77675 5.069622,2.004882 7.762579,2.043097 l 1.381953,0.06237"
       id="path2469-3"
       sodipodi:nodetypes="ccccc"
       inkscape:label="s2" />
  </g>
  <g
     id="g431"
     inkscape:label="g2">
    <path
       d="m 43.8,86.8 v 0 q -7.1,0 -11,-3.6 -3.9,-3.6 -3.9,-9.5 v 0 q 0,-5.4 4.1,-9.15 4.1,-3.75 12,-3.75 v 0 q 7.3,0 12.65,2.75 5.35,2.75 9.45,7.1 4.1,4.35 7.5,9.25 v 0 l -4.1,2.7 q -3.7,-5.1 -7.35,-8.95 -3.65,-3.85 -8,-6 Q 50.8,65.5 45.2,65.5 v 0 q -5.8,0 -8.55,2.35 -2.75,2.35 -2.75,5.95 v 0 q 0,4.2 2.7,6.15 2.7,1.95 6.9,1.95 v 0 q 2.7,0 4.95,-0.55 2.25,-0.55 4.45,-1.55 v 0 l 1.7,4.8 q -2.6,1 -5.3,1.6 -2.7,0.6 -5.5,0.6 z"
       id="path394"
       inkscape:label="p2" />
    <path
       style="display:inline;fill:none;stroke:#000000;stroke-width:1px;stroke-linecap:butt;stroke-linejoin:miter;stroke-opacity:1"
       d="m 53.826297,82.094678 c -2.5595,0.870519 -5.086956,1.981239 -7.823268,2.132839 -3.656103,0.346073 -7.631032,0.02382 -10.710627,-2.159471 -1.994966,-1.389787 -3.307535,-3.602926 -3.721074,-5.984023 -0.524344,-2.865918 -0.09409,-6.035966 1.795578,-8.342769 1.971969,-2.740176 5.319775,-4.087888 8.589498,-4.41938 5.40268,-0.588506 11.078158,0.234292 15.808472,3.017688 4.134421,2.336076 7.556132,5.727727 10.466874,9.443932 1.484891,1.838422 2.884219,3.743962 4.305869,5.631336"
       id="path546"
       inkscape:label="s3" />
  </g>
</svg>

<?xml version="1.0" encoding="UTF-8" standalone="no"?>
<svg
   width="74.599998"
   height="86.800003"
   version="1.1"
   id="svg709"
   sodipodi:docname="5_goo.svg"
   inkscape:version="1.2.1 (9c6d41e410, 2022-07-14)"
   xmlns:inkscape="http://www.inkscape.org/namespaces/inkscape"
   xmlns:sodipodi="http://sodipodi.sourceforge.net/DTD/sodipodi-0.dtd"
   xmlns="http://www.w3.org/2000/svg"
   xmlns:svg="http://www.w3.org/2000/svg">
  <defs
     id="defs713" />
  <sodipodi:namedview
     id="namedview711"
     pagecolor="#ffffff"
     bordercolor="#666666"
     borderopacity="1.0"
     inkscape:showpageshadow="2"
     inkscape:pageopacity="0.0"
     inkscape:pagecheckerboard="0"
     inkscape:deskcolor="#d1d1d1"
     showgrid="false"
     inkscape:zoom="7.239264"
     inkscape:cx="37.089406"
     inkscape:cy="47.93305"
     inkscape:window-width="1920"
     inkscape:window-height="1027"
     inkscape:window-x="-8"
     inkscape:window-y="-8"
     inkscape:window-maximized="1"
     inkscape:current-layer="svg709" />
  <g
     id="g1100"
     inkscape:label="g1"
     transform="matrix(0.9997453,0,0,0.99998115,0,0.00113648)">
    <path
       style="display:inline"
       d="m 19.1,41.7 v 0 q -5.6,0 -10.3,-3 -4.7,-3 -8.8,-9.4 v 0 l 4.4,-2.9 q 3.3,5.3 6.65,7.85 3.35,2.55 7.85,2.55 v 0 q 11,0 11,-15.2 v 0 Q 29.9,13.5 26.8,9.25 23.7,5 17.2,5 V 5 Q 14.2,5 11.35,5.75 8.5,6.5 6.1,7.7 v 0 L 4.3,3 Q 10.8,0 17.4,0 V 0 Q 26,0 30.65,5.65 35.3,11.3 35.3,21.7 v 0 q 0,7.2 -2.1,11.6 -2.1,4.4 -5.75,6.4 -3.65,2 -8.35,2 z"
       id="path2392"
       inkscape:label="p1" />
    <path
       style="fill:none;stroke:#000000;stroke-width:1px;stroke-linecap:butt;stroke-linejoin:miter;stroke-opacity:1"
       d="M 5.1110167,5.3786544 C 7.9569982,4.4053666 10.729974,3.1187655 13.74917,2.7709717 c 3.864238,-0.5759492 8.035432,-0.3555143 11.482924,1.6478216 2.778957,1.565769 4.725982,4.3013607 5.816921,7.2558397 1.688958,4.683367 1.807164,9.780359 1.292464,14.685749 -0.511794,3.880063 -1.96099,7.9325 -5.153904,10.399892 -3.880399,2.819337 -9.169193,3.093213 -13.618228,1.593214 C 9.7051937,37.026498 6.7204676,34.011429 4.3615124,30.780452 3.6113031,29.765314 2.8610937,28.750175 2.1108844,27.735036"
       id="path2467"
       inkscape:label="s1" />
  </g>
  <g
     id="g1104"
     inkscape:label="g2"
     transform="matrix(0.9997453,0,0,0.99998115,0,0.00113648)">
    <path
       style="display:inline"
       d="m 60.3,60.3 h -1 q -6.7,0 -9.9,-3 v 0 Q 47.6,55.7 46.75,53.2 45.9,50.7 45.9,46.5 v 0 V 0 l 5.3,0.8 v 45.4 q 0,3.2 0.5,4.85 0.5,1.65 1.7,2.55 v 0 q 1.2,1.2 3.15,1.45 1.95,0.25 4.25,0.25 v 0 z"
       id="path1096"
       inkscape:label="p2" />
    <path
       style="fill:none;stroke:#000000;stroke-width:1px;stroke-linecap:butt;stroke-linejoin:miter;stroke-opacity:1"
       d="m 48.503106,0 c 0.03622,15.932961 0.01451,31.866641 0.087,47.799152 0.08139,2.829987 0.551096,5.907864 3.058307,7.861004 2.155272,1.77675 5.069622,2.004882 7.762579,2.043097 l 1.381953,0.06237"
       id="path2469"
       sodipodi:nodetypes="ccccc"
       inkscape:label="s2" />
  </g>
  <g
     id="g431"
     inkscape:label="g3">
    <path
       d="m 43.8,86.8 v 0 q -7.1,0 -11,-3.6 -3.9,-3.6 -3.9,-9.5 v 0 q 0,-5.4 4.1,-9.15 4.1,-3.75 12,-3.75 v 0 q 7.3,0 12.65,2.75 5.35,2.75 9.45,7.1 4.1,4.35 7.5,9.25 v 0 l -4.1,2.7 q -3.7,-5.1 -7.35,-8.95 -3.65,-3.85 -8,-6 Q 50.8,65.5 45.2,65.5 v 0 q -5.8,0 -8.55,2.35 -2.75,2.35 -2.75,5.95 v 0 q 0,4.2 2.7,6.15 2.7,1.95 6.9,1.95 v 0 q 2.7,0 4.95,-0.55 2.25,-0.55 4.45,-1.55 v 0 l 1.7,4.8 q -2.6,1 -5.3,1.6 -2.7,0.6 -5.5,0.6 z"
       id="path394"
       inkscape:label="p3" />
    <path
       style="display:inline;fill:none;stroke:#000000;stroke-width:1px;stroke-linecap:butt;stroke-linejoin:miter;stroke-opacity:1"
       d="m 53.826297,82.094678 c -2.5595,0.870519 -5.086956,1.981239 -7.823268,2.132839 -3.656103,0.346073 -7.631032,0.02382 -10.710627,-2.159471 -1.994966,-1.389787 -3.307535,-3.602926 -3.721074,-5.984023 -0.524344,-2.865918 -0.09409,-6.035966 1.795578,-8.342769 1.971969,-2.740176 5.319775,-4.087888 8.589498,-4.41938 5.40268,-0.588506 11.078158,0.234292 15.808472,3.017688 4.134421,2.336076 7.556132,5.727727 10.466874,9.443932 1.484891,1.838422 2.884219,3.743962 4.305869,5.631336"
       id="path546"
       inkscape:label="s3" />
  </g>
</svg>
